X: 16728
T: Harbour Deep Tune
R: polka
M: 2/4
K: Dmixolydian
|:E>F ED|EG A2|BG- GA|BD E2|
DE FG|AB A2|BA FE|D2 D2:|
|:Bd dc|Bc A2|BG GA|BG A2|
Bd dc|Bc A2|BA FE|D2 D2:|

